X: 1
T: Devine's
M: 6/8
L: 1/8
R: jig
K: Gmaj
DGG BGG|dGG BAG|ege edB|ABA AGE|
DGG BGG|dGG BAG|ege edB|1 AGE G2E:|2 AGE Gd/e/f||
gag edc|Bcd dBG|DEG AGA|BAA A2f|
gag edc|Bcd dBG|DEG AGA|1 BGG G2f:|2 BGG GA/B/c||
dBd gdB|dBG BGD|GGG AGA|BAA ABc|
dBd gdB|dBG BGD|GGG AGA|1 BGG GA/B/c:|2 BGG GFE||
